src/assets/about/pythonCard.svg

<svg width="269" height="83" viewBox="0 0 269 83" fill="none" xmlns="http://www.w3.org/2000/svg">
<g filter="url(#filter0_d_330_328)">
<rect x="5" width="259" height="72.9327" rx="36.4664" fill="white"/>
</g>
<path d="M109.464 44.5677V27.5277H116.808C117.64 27.5277 118.408 27.6957 119.112 28.0317C119.816 28.3677 120.424 28.8237 120.936 29.3997C121.448 29.9597 121.84 30.5917 122.112 31.2957C122.4 31.9997 122.544 32.7117 122.544 33.4317C122.544 34.4397 122.304 35.3917 121.824 36.2877C121.36 37.1837 120.704 37.9197 119.856 38.4957C119.024 39.0557 118.048 39.3357 116.928 39.3357H114.144V44.5677H109.464ZM114.144 35.2557H116.616C116.808 35.2557 116.992 35.1997 117.168 35.0877C117.344 34.9757 117.488 34.7837 117.6 34.5117C117.728 34.2397 117.792 33.8797 117.792 33.4317C117.792 32.9517 117.72 32.5837 117.576 32.3277C117.448 32.0557 117.28 31.8717 117.072 31.7757C116.88 31.6637 116.688 31.6077 116.496 31.6077H114.144V35.2557ZM127.404 27.5277L130.452 34.4877L133.572 27.5277H138.66L132.78 38.9277V44.5677H128.124V38.8797L122.34 27.5277H127.404ZM153.205 31.6077H148.309V44.5677H143.629V31.6077H138.709V27.5277H153.205V31.6077ZM169.981 27.5277V44.5677H165.301V37.8957H159.589V44.5677H154.909V27.5277H159.589V33.8157H165.301V27.5277H169.981ZM180.589 44.7117C179.293 44.7117 178.117 44.4717 177.061 43.9917C176.005 43.4957 175.093 42.8397 174.325 42.0237C173.573 41.1917 172.989 40.2637 172.573 39.2397C172.173 38.1997 171.973 37.1277 171.973 36.0237C171.973 34.8877 172.189 33.8077 172.621 32.7837C173.053 31.7597 173.653 30.8477 174.421 30.0477C175.205 29.2317 176.125 28.5917 177.181 28.1277C178.253 27.6637 179.421 27.4317 180.685 27.4317C181.981 27.4317 183.157 27.6797 184.213 28.1757C185.269 28.6557 186.173 29.3117 186.925 30.1437C187.677 30.9757 188.253 31.9117 188.653 32.9517C189.069 33.9757 189.277 35.0317 189.277 36.1197C189.277 37.2397 189.061 38.3117 188.629 39.3357C188.213 40.3597 187.613 41.2797 186.829 42.0957C186.061 42.8957 185.149 43.5357 184.093 44.0157C183.037 44.4797 181.869 44.7117 180.589 44.7117ZM176.725 36.0717C176.725 36.6477 176.805 37.2077 176.965 37.7517C177.125 38.2797 177.365 38.7597 177.685 39.1917C178.005 39.6077 178.405 39.9437 178.885 40.1997C179.381 40.4397 179.965 40.5597 180.637 40.5597C181.309 40.5597 181.893 40.4317 182.389 40.1757C182.885 39.9197 183.285 39.5757 183.589 39.1437C183.909 38.6957 184.141 38.2077 184.285 37.6797C184.445 37.1357 184.525 36.5837 184.525 36.0237C184.525 35.4477 184.445 34.8957 184.285 34.3677C184.125 33.8397 183.885 33.3677 183.565 32.9517C183.245 32.5197 182.837 32.1837 182.341 31.9437C181.845 31.7037 181.269 31.5837 180.613 31.5837C179.941 31.5837 179.357 31.7117 178.861 31.9677C178.381 32.2237 177.981 32.5677 177.661 32.9997C177.341 33.4157 177.101 33.8957 176.941 34.4397C176.797 34.9677 176.725 35.5117 176.725 36.0717ZM195.941 36.1917V44.5677H191.261V27.5277H194.909L201.749 36.1917V27.5277H206.429V44.5677H202.709L195.941 36.1917Z" fill="black"/>
<g clip-path="url(#clip0_330_328)">
<path d="M55.7859 11.5818C43.1246 11.5818 43.9152 17.0725 43.9152 17.0725L43.9293 22.761H56.0117V24.4689H39.1303C39.1303 24.4689 31.0283 23.55 31.0283 36.3252C31.0283 49.1007 38.0999 48.6476 38.0999 48.6476H42.3202V42.7193C42.3202 42.7193 42.0927 35.6477 49.2789 35.6477H61.2626C61.2626 35.6477 67.9953 35.7565 67.9953 29.1407V18.2019C67.9953 18.2019 69.0179 11.5818 55.7859 11.5818ZM49.1237 15.4072C49.4092 15.407 49.692 15.463 49.9558 15.5721C50.2196 15.6813 50.4594 15.8414 50.6612 16.0433C50.8631 16.2452 51.0232 16.4849 51.1324 16.7487C51.2415 17.0125 51.2976 17.2953 51.2973 17.5808C51.2976 17.8663 51.2415 18.1491 51.1324 18.4129C51.0232 18.6768 50.8631 18.9165 50.6612 19.1184C50.4594 19.3203 50.2196 19.4804 49.9558 19.5895C49.692 19.6987 49.4092 19.7547 49.1237 19.7545C48.8382 19.7547 48.5554 19.6987 48.2916 19.5895C48.0277 19.4804 47.788 19.3203 47.5861 19.1184C47.3842 18.9165 47.2241 18.6768 47.115 18.4129C47.0059 18.1491 46.9498 17.8663 46.9501 17.5808C46.9498 17.2953 47.0059 17.0125 47.115 16.7487C47.2241 16.4849 47.3842 16.2452 47.5861 16.0433C47.788 15.8414 48.0277 15.6813 48.2916 15.5721C48.5554 15.463 48.8382 15.407 49.1237 15.4072Z" fill="url(#paint0_linear_330_328)"/>
<path d="M56.1454 61.1971C68.8067 61.1971 68.0161 55.7064 68.0161 55.7064L68.0021 50.0181H55.9194V48.3102H72.8008C72.8008 48.3102 80.9028 49.2291 80.9028 36.4535C80.9028 23.6782 73.8312 24.1313 73.8312 24.1313H69.6109V30.0594C69.6109 30.0594 69.8384 37.131 62.6522 37.131H50.6686C50.6686 37.131 43.9358 37.0222 43.9358 43.6382V54.5772C43.9358 54.5772 42.9134 61.1971 56.1452 61.1971H56.1454ZM62.8077 57.3721C62.5221 57.3723 62.2394 57.3163 61.9755 57.2071C61.7117 57.098 61.472 56.9379 61.2701 56.736C61.0682 56.5341 60.9081 56.2944 60.799 56.0306C60.6898 55.7667 60.6338 55.484 60.634 55.1985C60.6337 54.9129 60.6898 54.6301 60.7989 54.3663C60.908 54.1024 61.0681 53.8627 61.27 53.6608C61.4719 53.4589 61.7116 53.2987 61.9755 53.1896C62.2393 53.0804 62.5221 53.0244 62.8077 53.0246C63.0932 53.0244 63.3759 53.0804 63.6398 53.1896C63.9036 53.2987 64.1433 53.4588 64.3452 53.6607C64.5471 53.8626 64.7072 54.1023 64.8163 54.3661C64.9255 54.63 64.9815 54.9127 64.9813 55.1983C64.9815 55.4838 64.9255 55.7665 64.8163 56.0304C64.7072 56.2942 64.5471 56.5339 64.3452 56.7358C64.1433 56.9377 63.9036 57.0978 63.6398 57.2069C63.3759 57.3161 63.0932 57.3723 62.8077 57.3721Z" fill="url(#paint1_linear_330_328)"/>
</g>
<defs>
<filter id="filter0_d_330_328" x="0" y="0" width="269" height="82.9327" filterUnits="userSpaceOnUse" color-interpolation-filters="sRGB">
<feFlood flood-opacity="0" result="BackgroundImageFix"/>
<feColorMatrix in="SourceAlpha" type="matrix" values="0 0 0 0 0 0 0 0 0 0 0 0 0 0 0 0 0 0 127 0" result="hardAlpha"/>
<feOffset dy="5"/>
<feGaussianBlur stdDeviation="2.5"/>
<feComposite in2="hardAlpha" operator="out"/>
<feColorMatrix type="matrix" values="0 0 0 0 0 0 0 0 0 0 0 0 0 0 0 0 0 0 0.25 0"/>
<feBlend mode="normal" in2="BackgroundImageFix" result="effect1_dropShadow_330_328"/>
<feBlend mode="normal" in="SourceGraphic" in2="effect1_dropShadow_330_328" result="shape"/>
</filter>
<linearGradient id="paint0_linear_330_328" x1="510.322" y1="457.841" x2="2981.96" y2="2904.82" gradientUnits="userSpaceOnUse">
<stop stop-color="#387EB8"/>
<stop offset="1" stop-color="#366994"/>
</linearGradient>
<linearGradient id="paint1_linear_330_328" x1="751.373" y1="786.948" x2="3405.62" y2="3296.1" gradientUnits="userSpaceOnUse">
<stop stop-color="#FFE052"/>
<stop offset="1" stop-color="#FFC331"/>
</linearGradient>
<clipPath id="clip0_330_328">
<rect width="50" height="49.8" fill="white" transform="translate(31 11.5677)"/>
</clipPath>
</defs>
</svg>

<svg xmlns="http://www.w3.org/2000/svg" width="269" height="83" fill="none"><g filter="url(#a)"><rect width="259" height="72.933" x="5" fill="#fff" rx="36.466"/></g><path fill="#000" d="M109.464 44.568v-17.04h7.344c.832 0 1.6.168 2.304.504a5.698 5.698 0 0 1 1.824 1.368c.512.56.904 1.192 1.176 1.896.288.704.432 1.416.432 2.136a5.96 5.96 0 0 1-.72 2.856 5.93 5.93 0 0 1-1.968 2.208c-.832.56-1.808.84-2.928.84h-2.784v5.232h-4.68Zm4.68-9.312h2.472c.192 0 .376-.056.552-.168.176-.112.32-.304.432-.576.128-.272.192-.632.192-1.08 0-.48-.072-.848-.216-1.104-.128-.272-.296-.456-.504-.552a1.135 1.135 0 0 0-.576-.168h-2.352v3.648Zm13.26-7.728 3.048 6.96 3.12-6.96h5.088l-5.88 11.4v5.64h-4.656V38.88l-5.784-11.352h5.064Zm25.801 4.08h-4.896v12.96h-4.68v-12.96h-4.92v-4.08h14.496v4.08Zm16.776-4.08v17.04h-4.68v-6.672h-5.712v6.672h-4.68v-17.04h4.68v6.288h5.712v-6.288h4.68Zm10.608 17.184c-1.296 0-2.472-.24-3.528-.72a8.927 8.927 0 0 1-2.736-1.968 9.4 9.4 0 0 1-1.752-2.784c-.4-1.04-.6-2.112-.6-3.216a8.25 8.25 0 0 1 .648-3.24 8.93 8.93 0 0 1 1.8-2.736 8.564 8.564 0 0 1 2.76-1.92c1.072-.464 2.24-.696 3.504-.696 1.296 0 2.472.248 3.528.744a8.162 8.162 0 0 1 2.712 1.968 8.94 8.94 0 0 1 1.728 2.808 8.343 8.343 0 0 1-.024 6.384 8.658 8.658 0 0 1-1.8 2.76c-.768.8-1.68 1.44-2.736 1.92-1.056.464-2.224.696-3.504.696Zm-3.864-8.64c0 .576.08 1.136.24 1.68.16.528.4 1.008.72 1.44.32.416.72.752 1.2 1.008.496.24 1.08.36 1.752.36.672 0 1.256-.128 1.752-.384s.896-.6 1.2-1.032c.32-.448.552-.936.696-1.464a5.84 5.84 0 0 0 0-3.312c-.16-.528-.4-1-.72-1.416a3.27 3.27 0 0 0-1.224-1.008c-.496-.24-1.072-.36-1.728-.36-.672 0-1.256.128-1.752.384-.48.256-.88.6-1.2 1.032-.32.416-.56.896-.72 1.44a6.175 6.175 0 0 0-.216 1.632Zm19.216.12v8.376h-4.68v-17.04h3.648l6.84 8.664v-8.664h4.68v17.04h-3.72l-6.768-8.376Z"/><g clip-path="url(#b)"><path fill="url(#c)" d="M55.786 11.582c-12.661 0-11.87 5.49-11.87 5.49l.013 5.689h12.083v1.708H39.13s-8.102-.919-8.102 11.856c0 12.776 7.072 12.323 7.072 12.323h4.22v-5.929s-.227-7.071 6.959-7.071h11.984s6.732.108 6.732-6.507V18.2s1.023-6.62-12.21-6.62Zm-6.662 3.825a2.173 2.173 0 1 1-1.538 3.711 2.17 2.17 0 0 1-.471-2.37 2.171 2.171 0 0 1 2.009-1.34Z"/><path fill="url(#d)" d="M56.145 61.197c12.662 0 11.871-5.49 11.871-5.49l-.014-5.689H55.92V48.31h16.882s8.102.92 8.102-11.857c0-12.775-7.072-12.322-7.072-12.322h-4.22v5.928s.227 7.072-6.959 7.072H50.67s-6.733-.109-6.733 6.507v10.94s-1.023 6.62 12.21 6.62Zm6.663-3.825a2.172 2.172 0 0 1-1.538-3.711 2.17 2.17 0 0 1 2.37-.471 2.171 2.171 0 0 1 1.176 2.84 2.171 2.171 0 0 1-2.008 1.342Z"/></g><defs><linearGradient id="c" x1="510.322" x2="2981.96" y1="457.841" y2="2904.82" gradientUnits="userSpaceOnUse"><stop stop-color="#387EB8"/><stop offset="1" stop-color="#366994"/></linearGradient><linearGradient id="d" x1="751.373" x2="3405.62" y1="786.948" y2="3296.1" gradientUnits="userSpaceOnUse"><stop stop-color="#FFE052"/><stop offset="1" stop-color="#FFC331"/></linearGradient><clipPath id="b"><path fill="#fff" d="M31 11.568h50v49.8H31z"/></clipPath><filter id="a" width="269" height="82.933" x="0" y="0" color-interpolation-filters="sRGB" filterUnits="userSpaceOnUse"><feFlood flood-opacity="0" result="BackgroundImageFix"/><feColorMatrix in="SourceAlpha" result="hardAlpha" values="0 0 0 0 0 0 0 0 0 0 0 0 0 0 0 0 0 0 127 0"/><feOffset dy="5"/><feGaussianBlur stdDeviation="2.5"/><feComposite in2="hardAlpha" operator="out"/><feColorMatrix values="0 0 0 0 0 0 0 0 0 0 0 0 0 0 0 0 0 0 0.25 0"/><feBlend in2="BackgroundImageFix" result="effect1_dropShadow_330_328"/><feBlend in="SourceGraphic" in2="effect1_dropShadow_330_328" result="shape"/></filter></defs></svg>
